dist/static/img/services/01.svg

<svg width="48" height="48" viewBox="0 0 48 48" fill="none" xmlns="http://www.w3.org/2000/svg">
<g clip-path="url(#clip0_595_2525)">
<path d="M47.0624 32.8121H46.1249V2.81249C46.1249 1.26159 44.8629 0 43.3124 0H4.68749C3.13659 0 1.875 1.26159 1.875 2.81249V32.8121H0.937498C0.419677 32.8121 0 33.2321 0 33.7496V36.5621C0 38.113 1.26159 39.3746 2.81249 39.3746H25.5607V45.1874C25.5607 46.7383 26.8223 47.9999 28.3732 47.9999H39.5621C41.113 47.9999 42.3745 46.7383 42.3745 45.1874V39.3746H45.1874C46.7383 39.3746 47.9999 38.113 47.9999 36.5621V33.7496C47.9999 33.2321 47.5802 32.8121 47.0624 32.8121ZM42.3745 32.8121V30.9371H44.2499V32.8121H42.3745ZM4.68749 1.875H43.3124C43.8291 1.875 44.2499 2.29541 44.2499 2.81249V3.74999H3.74999V2.81249C3.74999 2.29541 4.1704 1.875 4.68749 1.875ZM3.74999 30.9371H4.68749C5.20531 30.9371 5.62499 30.5174 5.62499 29.9996C5.62499 29.4818 5.20531 29.0621 4.68749 29.0621H3.74999V5.62499H44.2499V29.0621H42.3745V22.6875C42.3745 21.1366 41.113 19.875 39.5621 19.875H28.3732C27.9396 19.875 27.5284 19.9738 27.1614 20.15L23.1364 16.125H24.6229C25.1407 16.125 25.5604 15.7053 25.5604 15.1875C25.5604 14.6696 25.1407 14.25 24.6229 14.25H20.8732C20.3554 14.25 19.9358 14.6696 19.9358 15.1875V18.9375C19.9358 19.4549 20.3554 19.875 20.8732 19.875C21.3907 19.875 21.8107 19.4549 21.8107 18.9375V17.4506L25.8358 21.4757C25.6596 21.843 25.5607 22.2539 25.5607 22.6875V29.0621H13.125C12.6072 29.0621 12.1875 29.4818 12.1875 29.9996C12.1875 30.5174 12.6072 30.9371 13.125 30.9371H25.5607V33.7496H19.3125C19.3125 33.2321 18.8928 32.8121 18.375 32.8121H3.74999V30.9371ZM2.81249 37.4996C2.29541 37.4996 1.875 37.0792 1.875 36.5621V34.6871H17.6891C18.0139 35.2474 18.62 35.6246 19.3125 35.6246H25.5607V37.4996H2.81249ZM40.4996 45.1874C40.4996 45.7045 40.0791 46.1249 39.5621 46.1249H28.3732C27.8561 46.1249 27.4357 45.7045 27.4357 45.1874V23.0756L31.735 27.3749H30.2482C29.7308 27.3749 29.3107 27.7946 29.3107 28.3124C29.3107 28.8303 29.7308 29.2499 30.2482 29.2499H33.9982C34.516 29.2499 34.9357 28.8303 34.9357 28.3124V24.5628C34.9357 24.045 34.516 23.6253 33.9982 23.6253C33.4804 23.6253 33.0607 24.045 33.0607 24.5628V26.0493L28.7614 21.75H39.5621C40.0791 21.75 40.4996 22.1707 40.4996 22.6875V45.1874ZM46.1249 36.5621C46.1249 37.0792 45.7041 37.4996 45.1874 37.4996H42.3745V34.6871H46.1249V36.5621Z" fill="white"/>
<path d="M33.9681 43.3125H33.9674C33.4496 43.3125 33.0303 43.7322 33.0303 44.25C33.0303 44.7675 33.4503 45.1875 33.9681 45.1875C34.486 45.1875 34.9056 44.7675 34.9056 44.25C34.9056 43.7322 34.486 43.3125 33.9681 43.3125Z" fill="white"/>
<path d="M36.2809 9.37549H41.4368C41.9546 9.37549 42.3743 8.95581 42.3743 8.43799C42.3743 7.92017 41.9546 7.50049 41.4368 7.50049H36.2813C35.7634 7.50049 35.3438 7.92017 35.3438 8.43799C35.3434 8.95581 35.7631 9.37549 36.2809 9.37549Z" fill="white"/>
<path d="M32.0629 9.37549C32.5807 9.37549 33.0004 8.95581 33.0004 8.43799C33.0004 7.92017 32.5807 7.50049 32.0629 7.50049H32.0625C31.5447 7.50049 31.125 7.92017 31.125 8.43799C31.125 8.95581 31.545 9.37549 32.0629 9.37549Z" fill="white"/>
<path d="M8.90662 29.062H8.90588C8.38806 29.062 7.96875 29.4817 7.96875 29.9995C7.96875 30.5173 8.38879 30.937 8.90662 30.937C9.42444 30.937 9.84412 30.5173 9.84412 29.9995C9.84412 29.4817 9.42444 29.062 8.90662 29.062Z" fill="white"/>
</g>
<defs>
<clipPath id="clip0_595_2525">
<rect width="48" height="48" fill="white"/>
</clipPath>
</defs>
</svg>

<svg width="48" height="48" viewBox="0 0 48 48" fill="none" xmlns="http://www.w3.org/2000/svg"><g clip-path="url(#clip0_595_2525)" fill="#fff"><path d="M47.062 32.812h-.937v-30A2.816 2.816 0 0043.312 0H4.687a2.816 2.816 0 00-2.812 2.812v30H.937A.938.938 0 000 33.75v2.812a2.816 2.816 0 002.812 2.813h22.749v5.812A2.816 2.816 0 0028.373 48h11.19a2.815 2.815 0 002.811-2.813v-5.812h2.813A2.816 2.816 0 0048 36.562V33.75a.938.938 0 00-.938-.938zm-4.688 0v-1.875h1.876v1.875h-1.876zM4.688 1.875h38.625c.517 0 .938.42.938.937v.938H3.75v-.938c0-.517.42-.937.937-.937zM3.75 30.937h.937a.937.937 0 100-1.875H3.75V5.625h40.5v23.437h-1.876v-6.375a2.815 2.815 0 00-2.812-2.812H28.373c-.433 0-.845.099-1.212.275l-4.025-4.025h1.487a.937.937 0 100-1.875h-3.75a.937.937 0 00-.937.938v3.75a.938.938 0 001.875 0V17.45l4.025 4.025a2.794 2.794 0 00-.275 1.212v6.374H13.125a.937.937 0 100 1.875h12.436v2.813h-6.248a.938.938 0 00-.938-.938H3.75v-1.875zM2.812 37.5a.938.938 0 01-.937-.938v-1.875h15.814c.325.56.931.938 1.623.938h6.249V37.5H2.812zM40.5 45.187c0 .518-.42.938-.938.938H28.373a.938.938 0 01-.937-.938V23.076l4.299 4.299h-1.487a.938.938 0 000 1.875h3.75c.518 0 .938-.42.938-.938v-3.75a.937.937 0 10-1.875 0v1.487l-4.3-4.299h10.801c.517 0 .938.42.938.938v22.5zm5.625-8.625c0 .517-.42.938-.938.938h-2.813v-2.813h3.75v1.875z"/><path d="M33.968 43.313a.937.937 0 10-.002 1.874.937.937 0 00.002-1.874zM36.28 9.375h5.157a.937.937 0 100-1.875H36.28a.937.937 0 000 1.875zm-4.217 0a.937.937 0 100-1.875.937.937 0 100 1.875zM8.907 29.062h-.001a.937.937 0 10-.002 1.874.937.937 0 00.003-1.874z"/></g><defs><clipPath id="clip0_595_2525"><path fill="#fff" d="M0 0h48v48H0z"/></clipPath></defs></svg>
